; generated by PrusaSlicer 2.7.4+win64 on 2024-04-16 at 08:45:02 UTC


;
;
; 

; external perimeters extrusion width = 0.45mm
; perimeters extrusion width = 0.45mm
; infill extrusion width = 0.45mm
; solid infill extrusion width = 0.45mm
; top infill extrusion width = 0.40mm
; support material extrusion width = 0.35mm
; first layer extrusion width = 0.42mm

; external perimeters extrusion width = 0.45mm
; perimeters extrusion width = 0.45mm
; infill extrusion width = 0.45mm
; solid infill extrusion width = 0.45mm
; top infill extrusion width = 0.40mm
; support material extrusion width = 0.35mm
; first layer extrusion width = 0.42mm

; external perimeters extrusion width = 0.45mm
; perimeters extrusion width = 0.45mm
; infill extrusion width = 0.45mm
; solid infill extrusion width = 0.45mm
; top infill extrusion width = 0.40mm
; support material extrusion width = 0.35mm
; first layer extrusion width = 0.42mm

M73 P0 R12
M73 Q0 S12
M201 X1000 Y1000 Z200 E5000 ; sets maximum accelerations, mm/sec^2
M203 X200 Y200 Z12 E120 ; sets maximum feedrates, mm / sec
M204 S1250 T1250 ; sets acceleration (S) and retract acceleration (R), mm/sec^2
M205 X8.00 Y8.00 Z0.40 E4.50 ; sets the jerk limits, mm/sec
M205 S0 T0 ; sets the minimum extruding and travel feed rate, mm/sec

; printing object PZEM reader languette accrochage.stl id:0 copy 0
; stop printing object PZEM reader languette accrochage.stl id:0 copy 0
; printing object PZEM reader bouton.stl id:1 copy 0
; stop printing object PZEM reader bouton.stl id:1 copy 0
; printing object PZEM reader bouton.stl id:2 copy 0
; stop printing object PZEM reader bouton.stl id:2 copy 0

;TYPE:Custom
M862.3 P "MK3S" ; printer model check
M862.1 P0.4 ; nozzle diameter check
M115 U3.13.3 ; tell printer latest fw version
G90 ; use absolute coordinates
M83 ; extruder relative mode
M104 S215 ; set extruder temp
M140 S60 ; set bed temp
M190 S60 ; wait for bed temp
M109 S215 ; wait for extruder temp
G28 W ; home all without mesh bed level
G80 X21.7342 Y15.7504 W20.7563 H35.99 ; mesh bed levelling

G1 Z0.2 F720
G1 Y-3 F1000 ; go outside print area
G92 E0
G1 X60 E9 F1000 ; intro line
G1 X100 E12.5 F1000 ; intro line

G92 E0
M221 S95

; Don't change E values below. Excessive value can damage the printer.
M907 E430 ; set extruder motor current
G21 ; set units to millimeters
G90 ; use absolute coordinates
M83 ; use relative distances for extrusion

M900 K0.05 ; Filament gcode LA 1.5
M900 K30 ; Filament gcode LA 1.0




M107
;LAYER_CHANGE
;Z:0.2
;HEIGHT:0.2
G1 E-.8 F2100
G1 Z.6 F720
; printing object PZEM reader languette accrochage.stl id:0 copy 0
G1 X34.417 Y50.953 F10800
G1 Z.2 F720
G1 E.8 F2100
M204 S800
;TYPE:Perimeter
;WIDTH:0.419999
G1 F1200
G1 X22.521 Y50.953 E.37299
G1 X22.521 Y16.538 E1.07906
M73 P1 R12
M73 Q1 S12
G1 X34.417 Y16.538 E.37299
G1 X34.417 Y22.485 E.18646
M73 P1 R11
G1 X34.417 Y50.893 E.89071
M204 S1000
G1 X34.417 Y50.893 F10800
G1 X34.794 Y51.33
M204 S800
;TYPE:External perimeter
G1 F1200
G1 X22.144 Y51.33 E.39663
G1 X22.144 Y16.16 E1.10273
M73 Q1 S11
G1 X34.794 Y16.16 E.39663
G1 X34.794 Y22.485 E.19832
M73 P2 R11
M73 Q2 S11
G1 X34.794 Y51.27 E.90253
M204 S1000
;WIPE_START
G1 F8640
G1 X34.794 Y51.33 E-.01385
G1 X31.389 Y51.33 E-.78615
;WIPE_END
G1 Z.6 F720
G1 X33.252 Y48.062 F10800
G1 Z.2 F720
G1 E.8 F2100
M204 S800
;TYPE:Perimeter
G1 F1200
G1 X33.248 Y48.115 E.00167
G1 X33.117 Y48.388 E.00949
G1 X32.788 Y48.574 E.01185
G1 X32.691 Y48.583 E.00305
G1 X24.248 Y48.583 E.26472
G1 X24.088 Y48.559 E.00507
G1 X23.821 Y48.388 E.00994
G1 X23.691 Y48.115 E.00948
G1 X23.682 Y48.017 E.00309
G1 X23.682 Y43.574 E.13931
G1 X23.795 Y43.235 E.0112
G1 X24.03 Y43.052 E.00934
G1 X24.248 Y43.008 E.00697
G1 X32.691 Y43.008 E.26472
G1 X32.908 Y43.052 E.00694
G1 X33.143 Y43.235 E.00934
G1 X33.256 Y43.574 E.0112
G1 X33.256 Y48.002 E.13884
M204 S1000
G1 X33.256 Y48.002 F10800
G1 X32.879 Y48.017
M204 S800
;TYPE:External perimeter
G1 F1200
G1 X32.833 Y48.141 E.00415
G1 X32.691 Y48.205 E.00488
G1 X24.248 Y48.205 E.26472
G1 X24.105 Y48.141 E.00491
G1 X24.059 Y48.017 E.00415
G1 X24.059 Y43.574 E.13931
G1 X24.097 Y43.461 E.00374
G1 X24.248 Y43.385 E.0053
G1 X32.691 Y43.385 E.26472
G1 X32.841 Y43.461 E.00527
G1 X32.879 Y43.574 E.00374
G1 X32.879 Y47.957 E.13743
M204 S1000
;WIPE_START
G1 F8640
G1 X32.879 Y48.017 E-.01385
G1 X32.833 Y48.141 E-.03054
G1 X32.691 Y48.205 E-.03596
G1 X29.574 Y48.205 E-.71965
;WIPE_END
G1 Z.6 F720
G1 X33.478 Y16.707 F10800
G1 Z.2 F720
G1 E.8 F2100
M204 S800
;TYPE:Solid infill
;WIDTH:0.423163
G1 F1200
G1 X34.078 Y17.306 E.02681
G1 X34.078 Y17.844 E.01701
G1 X33.11 Y16.877 E.04326
G1 X32.573 Y16.877 E.01698
G1 X34.078 Y18.382 E.06729
G1 X34.078 Y18.92 E.01701
G1 X32.035 Y16.877 E.09135
G1 X31.497 Y16.877 E.01701
G1 X34.078 Y19.457 E.11538
G1 X34.078 Y19.995 E.01701
G1 X30.959 Y16.877 E.13944
G1 X30.422 Y16.877 E.01698
G1 X34.078 Y20.533 E.16347
G1 X34.078 Y21.071 E.01701
M73 Q3 S11
G1 X29.884 Y16.877 E.18753
G1 X29.346 Y16.877 E.01701
M73 P3 R11
G1 X34.078 Y21.608 E.21156
G1 X34.078 Y22.146 E.01701
G1 X28.808 Y16.877 E.23562
G1 X28.271 Y16.877 E.01698
G1 X34.078 Y22.684 E.25965
G1 X34.078 Y23.222 E.01701
G1 X27.733 Y16.877 E.28371
G1 X27.195 Y16.877 E.01701
G1 X34.078 Y23.759 E.30774
G1 X34.078 Y24.297 E.01701
G1 X26.657 Y16.877 E.3318
G1 X26.12 Y16.877 E.01698
G1 X34.078 Y24.835 E.35583
G1 X34.078 Y25.373 E.01701
G1 X25.582 Y16.877 E.37989
G1 X25.044 Y16.877 E.01701
G1 X34.078 Y25.91 E.40392
G1 X34.078 Y26.448 E.01701
G1 X24.506 Y16.877 E.42798
G1 X23.969 Y16.877 E.01698
G1 X34.078 Y26.986 E.45201
G1 X34.078 Y27.524 E.01701
G1 X23.431 Y16.877 E.47607
G1 X22.893 Y16.877 E.01701
M73 Q4 S11
G1 X34.078 Y28.061 E.5001
G1 X34.078 Y28.599 E.01701
M73 P4 R11
G1 X22.861 Y17.382 E.50155
G1 X22.861 Y17.92 E.01701
G1 X34.078 Y29.137 E.50155
G1 X34.078 Y29.675 E.01701
G1 X22.861 Y18.458 E.50155
G1 X22.861 Y18.995 E.01698
G1 X34.078 Y30.212 E.50155
G1 X34.078 Y30.75 E.01701
G1 X22.861 Y19.533 E.50155
G1 X22.861 Y20.071 E.01701
G1 X34.078 Y31.288 E.50155
G1 X34.078 Y31.826 E.01701
G1 X22.861 Y20.608 E.50158
G1 X22.861 Y21.146 E.01701
G1 X34.078 Y32.363 E.50155
G1 X34.078 Y32.901 E.01701
M73 P5 R11
M73 Q5 S11
G1 X22.861 Y21.684 E.50155
G1 X22.861 Y22.222 E.01701
G1 X34.078 Y33.439 E.50155
G1 X34.078 Y33.977 E.01701
G1 X22.861 Y22.759 E.50158
G1 X22.861 Y23.297 E.01701
G1 X34.078 Y34.514 E.50155
G1 X34.078 Y35.052 E.01701
G1 X22.861 Y23.835 E.50155
G1 X22.861 Y24.373 E.01701
G1 X34.078 Y35.59 E.50155
G1 X34.078 Y36.128 E.01701
G1 X22.861 Y24.91 E.50158
G1 X22.861 Y25.448 E.01701
G1 X34.078 Y36.665 E.50155
G1 X34.078 Y37.203 E.01701
G1 X22.861 Y25.986 E.50155
G1 X22.861 Y26.524 E.01701
M73 P6 R11
M73 Q6 S11
G1 X34.078 Y37.741 E.50155
G1 X34.078 Y38.279 E.01701
G1 X22.861 Y27.061 E.50158
G1 X22.861 Y27.599 E.01701
G1 X34.078 Y38.816 E.50155
G1 X34.078 Y39.354 E.01701
G1 X22.861 Y28.137 E.50155
G1 X22.861 Y28.675 E.01701
G1 X34.078 Y39.892 E.50155
G1 X34.078 Y40.43 E.01701
G1 X22.861 Y29.212 E.50158
G1 X22.861 Y29.75 E.01701
G1 X34.078 Y40.967 E.50155
G1 X34.078 Y41.505 E.01701
G1 X22.861 Y30.288 E.50155
G1 X22.861 Y30.826 E.01701
G1 X34.078 Y42.043 E.50155
G1 X34.078 Y42.58 E.01698
M73 P7 R11
M73 Q7 S11
G1 X22.861 Y31.363 E.50155
G1 X22.861 Y31.901 E.01701
G1 X34.078 Y43.118 E.50155
G1 X34.078 Y43.656 E.01701
G1 X22.861 Y32.439 E.50155
G1 X22.861 Y32.977 E.01701
G1 X32.553 Y42.669 E.43336
G1 X32.706 Y42.669 E.00484
G1 X33.045 Y42.737 E.01093
G1 X33.423 Y43.03 E.01512
G1 X33.596 Y43.549 E.0173
G1 X33.596 Y43.712 E.00515
G1 X34.247 Y44.363 E.02911
M204 S1000
G1 X34.247 Y44.363 F10800
G1 X33.426 Y44.08
M204 S800
G1 F1200
G1 X34.078 Y44.731 E.02913
G1 X34.078 Y45.269 E.01701
G1 X33.596 Y44.787 E.02155
G1 X33.596 Y45.325 E.01701
G1 X34.078 Y45.807 E.02155
G1 X34.078 Y46.345 E.01701
G1 X33.596 Y45.863 E.02155
G1 X33.596 Y46.4 E.01698
G1 X34.078 Y46.882 E.02155
G1 X34.078 Y47.42 E.01701
G1 X33.596 Y46.938 E.02155
G1 X33.596 Y47.476 E.01701
G1 X34.078 Y47.958 E.02155
G1 X34.078 Y48.496 E.01701
G1 X33.596 Y48.014 E.02155
G1 X33.581 Y48.187 E.00549
G1 X33.469 Y48.424 E.00829
G1 X34.078 Y49.033 E.02723
G1 X34.078 Y49.571 E.01701
G1 X33.222 Y48.715 E.03827
G1 X32.957 Y48.885 E.00995
G1 X32.867 Y48.898 E.00288
G1 X34.078 Y50.109 E.05415
G1 X34.078 Y50.614 E.01597
G1 X34.045 Y50.614 E.00104
G1 X32.353 Y48.922 E.07566
G1 X31.815 Y48.922 E.01701
G1 X33.507 Y50.614 E.07566
G1 X32.97 Y50.614 E.01698
G1 X31.277 Y48.922 E.07568
G1 X30.74 Y48.922 E.01698
G1 X32.432 Y50.614 E.07566
G1 X31.894 Y50.614 E.01701
G1 X30.202 Y48.922 E.07566
G1 X29.664 Y48.922 E.01701
G1 X31.356 Y50.614 E.07566
G1 X30.819 Y50.614 E.01698
G1 X29.126 Y48.922 E.07568
G1 X28.589 Y48.922 E.01698
G1 X30.281 Y50.614 E.07566
G1 X29.743 Y50.614 E.01701
G1 X28.051 Y48.922 E.07566
G1 X27.513 Y48.922 E.01701
G1 X29.205 Y50.614 E.07566
G1 X28.668 Y50.614 E.01698
G1 X26.975 Y48.922 E.07568
G1 X26.438 Y48.922 E.01698
G1 X28.13 Y50.614 E.07566
G1 X27.592 Y50.614 E.01701
G1 X25.9 Y48.922 E.07566
G1 X25.362 Y48.922 E.01701
G1 X27.054 Y50.614 E.07566
G1 X26.517 Y50.614 E.01698
G1 X24.655 Y48.752 E.08326
M204 S1000
;WIPE_START
G1 F8640
M73 P8 R11
M73 Q8 S11
G1 X26.517 Y50.614 E-.60803
G1 X27.054 Y50.614 E-.12399
G1 X26.846 Y50.406 E-.06798
;WIPE_END
G1 Z.6 F720
G1 X32.185 Y42.839 F10800
G1 Z.2 F720
G1 E.8 F2100
M204 S800
G1 F1200
G1 X22.861 Y33.514 E.41693
G1 X22.861 Y34.052 E.01701
G1 X31.477 Y42.669 E.38528
G1 X30.94 Y42.669 E.01698
G1 X22.861 Y34.59 E.36124
G1 X22.861 Y35.128 E.01701
G1 X30.402 Y42.669 E.33719
G1 X29.864 Y42.669 E.01701
G1 X22.861 Y35.665 E.31315
G1 X22.861 Y36.203 E.01701
G1 X29.327 Y42.669 E.28912
G1 X28.789 Y42.669 E.01701
G1 X22.861 Y36.741 E.26506
G1 X22.861 Y37.279 E.01701
G1 X28.251 Y42.669 E.24101
G1 X27.713 Y42.669 E.01701
G1 X22.861 Y37.816 E.21697
G1 X22.861 Y38.354 E.01701
G1 X27.176 Y42.669 E.19294
G1 X26.638 Y42.669 E.01701
G1 X22.861 Y38.892 E.16888
G1 X22.861 Y39.43 E.01701
G1 X26.1 Y42.669 E.14483
G1 X25.562 Y42.669 E.01701
G1 X22.861 Y39.967 E.12079
G1 X22.861 Y40.505 E.01701
G1 X25.025 Y42.669 E.09676
G1 X24.487 Y42.669 E.01701
G1 X22.861 Y41.043 E.0727
G1 X22.861 Y41.581 E.01701
G1 X23.996 Y42.716 E.05075
G1 X23.893 Y42.737 E.00332
G1 X23.66 Y42.918 E.00933
G1 X22.861 Y42.118 E.03575
G1 X22.861 Y42.656 E.01701
G1 X23.446 Y43.241 E.02616
G1 X23.343 Y43.55 E.0103
G1 X23.343 Y43.676 E.00398
G1 X22.861 Y43.194 E.02155
G1 X22.861 Y43.732 E.01701
G1 X23.344 Y44.215 E.0216
G1 X23.346 Y44.754 E.01704
G1 X22.861 Y44.269 E.02169
M73 P9 R11
M73 Q9 S11
G1 X22.861 Y44.807 E.01701
G1 X23.347 Y45.293 E.02173
G1 X23.348 Y45.832 E.01704
G1 X22.861 Y45.345 E.02178
G1 X22.861 Y45.883 E.01701
G1 X23.35 Y46.372 E.02186
G1 X23.351 Y46.911 E.01704
G1 X22.861 Y46.42 E.02193
G1 X22.861 Y46.958 E.01701
G1 X23.522 Y47.62 E.02958
M204 S1000
G1 X23.522 Y47.62 F10800
G1 X22.691 Y47.326
M204 S800
G1 F1200
G1 X23.354 Y47.989 E.02965
G1 X23.354 Y48.181 E.00607
G1 X23.561 Y48.616 E.01523
G1 X23.981 Y48.885 E.01577
G1 X24.287 Y48.922 E.00975
G1 X25.979 Y50.614 E.07566
G1 X25.441 Y50.614 E.01701
G1 X22.861 Y48.033 E.11538
G1 X22.861 Y48.571 E.01701
G1 X24.903 Y50.614 E.09133
G1 X24.366 Y50.614 E.01698
G1 X22.861 Y49.109 E.06729
G1 X22.861 Y49.647 E.01701
G1 X23.828 Y50.614 E.04324
G1 X23.29 Y50.614 E.01701
G1 X22.691 Y50.015 E.02678
M204 S1000
;WIPE_START
G1 F8640
G1 X23.29 Y50.614 E-.1956
G1 X23.828 Y50.614 E-.12423
G1 X22.861 Y49.647 E-.31577
G1 X22.861 Y49.109 E-.12423
G1 X22.984 Y49.232 E-.04017
;WIPE_END
G1 Z.6 F720
; stop printing object PZEM reader languette accrochage.stl id:0 copy 0
; printing object PZEM reader bouton.stl id:1 copy 0
G1 X39.582 Y29.698 F10800
G1 Z.2 F720
G1 E.8 F2100
M204 S800
;TYPE:Perimeter
;WIDTH:0.419999
G1 F1200
G1 X39.711 Y29.616 E.00479
G1 X40.153 Y29.545 E.01404
G1 X40.557 Y29.639 E.01301
G1 X40.922 Y29.901 E.01409
G1 X41.139 Y30.248 E.01283
G1 X41.209 Y30.591 E.01098
G1 X41.216 Y30.691 E.00314
G1 X41.125 Y31.094 E.01295
G1 X40.869 Y31.459 E.01398
G1 X40.487 Y31.696 E.0141
G1 X40.076 Y31.763 E.01306
G1 X39.638 Y31.66 E.01411
G1 X39.303 Y31.42 E.01292
G1 X39.077 Y31.07 E.01306
G1 X38.996 Y30.627 E.01412
G1 X39.082 Y30.223 E.01295
G1 X39.335 Y29.856 E.01398
G1 X39.531 Y29.73 E.00731
M204 S1000
G1 X39.531 Y29.73 F10800
G1 X39.407 Y29.352
M204 S800
;TYPE:External perimeter
G1 F1200
G1 X39.706 Y29.226 E.01017
G1 X40.165 Y29.166 E.01451
G1 X40.574 Y29.247 E.01307
G1 X40.954 Y29.43 E.01322
G1 X41.286 Y29.756 E.01459
G1 X41.493 Y30.113 E.01294
G1 X41.586 Y30.568 E.01456
G1 X41.594 Y30.704 E.00427
G1 X41.516 Y31.11 E.01296
G1 X41.312 Y31.526 E.01453
G1 X41.015 Y31.822 E.01315
G1 X40.617 Y32.052 E.01441
G1 X40.208 Y32.132 E.01307
G1 X39.789 Y32.108 E.01316
G1 X39.357 Y31.933 E.01461
G1 X39.028 Y31.681 E.01299
G1 X38.791 Y31.338 E.01307
G1 X38.646 Y30.944 E.01316
G1 X38.634 Y30.479 E.01458
G1 X38.733 Y30.077 E.01298
G1 X38.958 Y29.72 E.01323
G1 X39.325 Y29.386 E.01556
G1 X39.351 Y29.375 E.00089
M204 S1000
G1 X39.351 Y29.375 F10800
G1 X40.272 Y29.737
M204 S800
;TYPE:Solid infill
;WIDTH:0.426111
G1 F1200
G1 X40.684 Y30.148 E.01854
G1 X40.758 Y30.245 E.00389
G1 X40.82 Y30.369 E.00442
G1 X40.866 Y30.539 E.00561
G1 X40.875 Y30.68 E.0045
G1 X40.847 Y30.853 E.00558
G1 X39.907 Y29.914 E.04233
G1 X39.708 Y29.996 E.00686
G1 X39.563 Y30.112 E.00592
G1 X40.648 Y31.197 E.04889
G1 X40.637 Y31.209 E.00052
G1 X40.495 Y31.316 E.00567
G1 X40.303 Y31.394 E.0066
G1 X39.365 Y30.456 E.04227
G1 X39.353 Y30.494 E.00127
G1 X39.337 Y30.632 E.00443
G1 X39.353 Y30.809 E.00566
G1 X39.393 Y30.942 E.00443
G1 X39.459 Y31.071 E.00462
G1 X39.944 Y31.576 E.02231
M204 S1000
;WIPE_START
G1 F8640
G1 X39.459 Y31.071 E-.16167
G1 X39.393 Y30.942 E-.03346
G1 X39.353 Y30.809 E-.03207
G1 X39.337 Y30.632 E-.04104
G1 X39.353 Y30.494 E-.03208
G1 X39.365 Y30.456 E-.0092
G1 X40.303 Y31.394 E-.3063
G1 X40.495 Y31.316 E-.04785
G1 X40.637 Y31.209 E-.04105
G1 X40.648 Y31.197 E-.00376
G1 X40.368 Y30.917 E-.09152
;WIPE_END
G1 Z.6 F720
; stop printing object PZEM reader bouton.stl id:1 copy 0
; printing object PZEM reader bouton.stl id:2 copy 0
G1 X40.066 Y23.134 F10800
G1 Z.2 F720
G1 E.8 F2100
M204 S800
;TYPE:Perimeter
;WIDTH:0.419999
G1 F1200
G1 X40.195 Y23.052 E.00479
G1 X40.637 Y22.981 E.01404
G1 X41.041 Y23.075 E.01301
G1 X41.407 Y23.337 E.01411
G1 X41.624 Y23.684 E.01283
G1 X41.694 Y24.027 E.01098
G1 X41.7 Y24.127 E.00314
G1 X41.609 Y24.53 E.01295
M73 P9 R10
G1 X41.354 Y24.895 E.01396
G1 X40.972 Y25.132 E.0141
G1 X40.561 Y25.2 E.01306
G1 X40.123 Y25.096 E.01411
G1 X39.787 Y24.856 E.01295
G1 X39.561 Y24.506 E.01306
G1 X39.481 Y24.063 E.01411
G1 X39.567 Y23.66 E.01292
G1 X39.819 Y23.292 E.01398
G1 X40.016 Y23.167 E.00732
M204 S1000
G1 X40.016 Y23.167 F10800
G1 X39.891 Y22.788
M204 S800
;TYPE:External perimeter
G1 F1200
G1 X40.19 Y22.662 E.01017
G1 X40.65 Y22.602 E.01455
G1 X41.058 Y22.683 E.01304
G1 X41.438 Y22.866 E.01322
G1 X41.771 Y23.192 E.01461
G1 X41.978 Y23.549 E.01294
G1 X42.07 Y24.004 E.01455
G1 X42.079 Y24.14 E.00427
G1 X42.001 Y24.546 E.01296
G1 X41.797 Y24.962 E.01453
G1 X41.5 Y25.258 E.01315
G1 X41.102 Y25.488 E.01441
G1 X40.692 Y25.569 E.0131
G1 X40.273 Y25.544 E.01316
G1 X39.842 Y25.369 E.01459
G1 X39.513 Y25.117 E.01299
G1 X39.276 Y24.774 E.01307
G1 X39.13 Y24.38 E.01317
G1 X39.118 Y23.915 E.01458
G1 X39.218 Y23.513 E.01299
G1 X39.442 Y23.156 E.01321
G1 X39.81 Y22.822 E.01558
G1 X39.836 Y22.811 E.00089
M204 S1000
G1 X39.836 Y22.811 F10800
G1 X40.757 Y23.173
M204 S800
;TYPE:Solid infill
;WIDTH:0.426111
G1 F1200
G1 X41.169 Y23.585 E.01856
G1 X41.243 Y23.681 E.00386
G1 X41.305 Y23.806 E.00445
G1 X41.351 Y23.975 E.00558
G1 X41.359 Y24.116 E.0045
G1 X41.331 Y24.289 E.00558
G1 X40.392 Y23.35 E.04231
G1 X40.192 Y23.432 E.00689
G1 X40.048 Y23.548 E.00589
G1 X41.133 Y24.633 E.04889
G1 X41.122 Y24.645 E.00052
G1 X40.98 Y24.753 E.00568
G1 X40.788 Y24.83 E.00659
G1 X39.85 Y23.892 E.04227
G1 X39.838 Y23.93 E.00127
G1 X39.822 Y24.068 E.00443
G1 X39.838 Y24.245 E.00566
G1 X39.877 Y24.378 E.00442
G1 X39.944 Y24.507 E.00463
G1 X40.429 Y25.013 E.02233
M204 S1000
M106 S84.15
;LAYER_CHANGE
;Z:0.4
;HEIGHT:0.2
;BEFORE_LAYER_CHANGE
G92 E0.0
;0.4


;WIPE_START
G1 F8640
