; generated by PrusaSlicer 2.7.4+win64 on 2024-04-07 at 16:53:32 UTC


;
;
; 

; external perimeters extrusion width = 0.45mm
; perimeters extrusion width = 0.45mm
; infill extrusion width = 0.45mm
; solid infill extrusion width = 0.45mm
; top infill extrusion width = 0.40mm
; first layer extrusion width = 0.42mm

M73 P0 R35
M73 Q0 S35
M201 X1000 Y1000 Z200 E5000 ; sets maximum accelerations, mm/sec^2
M203 X200 Y200 Z12 E120 ; sets maximum feedrates, mm / sec
M204 S1250 T1250 ; sets acceleration (S) and retract acceleration (R), mm/sec^2
M205 X8.00 Y8.00 Z0.40 E4.50 ; sets the jerk limits, mm/sec
M205 S0 T0 ; sets the minimum extruding and travel feed rate, mm/sec

; printing object face avant.stl id:0 copy 0
; stop printing object face avant.stl id:0 copy 0

;TYPE:Custom
M862.3 P "MK3S" ; printer model check
M862.1 P0.4 ; nozzle diameter check
M115 U3.13.3 ; tell printer latest fw version
G90 ; use absolute coordinates
M83 ; extruder relative mode
M104 S215 ; set extruder temp
M140 S60 ; set bed temp
M190 S60 ; wait for bed temp
M109 S215 ; wait for extruder temp
G28 W ; home all without mesh bed level
G80 X54.4131 Y26.8594 W58.1312 H50.1312 ; mesh bed levelling

G1 Z0.2 F720
G1 Y-3 F1000 ; go outside print area
G92 E0
G1 X60 E9 F1000 ; intro line
G1 X100 E12.5 F1000 ; intro line

G92 E0
M221 S95

; Don't change E values below. Excessive value can damage the printer.
M907 E430 ; set extruder motor current
G21 ; set units to millimeters
G90 ; use absolute coordinates
M83 ; use relative distances for extrusion

M900 K0.05 ; Filament gcode LA 1.5
M900 K30 ; Filament gcode LA 1.0




M107
;LAYER_CHANGE
;Z:0.2
;HEIGHT:0.2
G1 E-.8 F2100
G1 Z.6 F720
G1 X54.993 Y28.118 F10800
G1 Z.2 F720
G1 E.8 F2100
M204 S800
;TYPE:Skirt/Brim
;WIDTH:0.42
G1 F1200
G1 X56.039 Y27.242 E.04278
G1 X56.979 Y27.048 E.03009
G1 X109.979 Y27.048 E1.66178
G1 X111.286 Y27.439 E.04277
G1 X112.162 Y28.485 E.04278
G1 X112.356 Y29.425 E.03009
G1 X112.356 Y74.425 E1.41094
G1 X111.964 Y75.732 E.04278
G1 X110.918 Y76.608 E.04278
G1 X109.979 Y76.802 E.03006
G1 X56.979 Y76.802 E1.66178
G1 X55.672 Y76.41 E.04278
G1 X54.795 Y75.365 E.04277
G1 X54.602 Y74.425 E.03009
G1 X54.602 Y29.425 E1.41094
G1 X54.976 Y28.175 E.04091
M204 S1000
;WIPE_START
G1 F8640
G1 X54.993 Y28.118 E-.01373
G1 X56.039 Y27.242 E-.31504
G1 X56.979 Y27.048 E-.22162
G1 X58.06 Y27.048 E-.24961
;WIPE_END
G1 Z.6 F720
; printing object face avant.stl id:0 copy 0
G1 X109.192 Y73.638 F10800
G1 Z.2 F720
G1 E.8 F2100
M204 S800
;TYPE:Perimeter
;WIDTH:0.419999
G1 F1200
G1 X57.766 Y73.638 E1.61242
G1 X57.766 Y30.212 E1.36159
G1 X109.192 Y30.212 E1.61242
M73 P1 R35
M73 Q1 S35
G1 X109.192 Y31.721 E.04731
M73 P1 R34
G1 X109.192 Y73.578 E1.31239
M204 S1000
G1 X109.192 Y73.578 F10800
G1 X109.569 Y74.015
M204 S800
;TYPE:External perimeter
G1 F1200
G1 X57.389 Y74.015 E1.63606
G1 X57.389 Y29.835 E1.38523
G1 X109.569 Y29.835 E1.63606
G1 X109.569 Y31.721 E.05913
G1 X109.569 Y73.955 E1.32422
M204 S1000
;WIPE_START
G1 F8640
G1 X109.569 Y74.015 E-.01385
G1 X106.164 Y74.015 E-.78615
;WIPE_END
G1 Z.6 F720
G1 X101.997 Y31.449 F10800
G1 Z.2 F720
G1 E.8 F2100
M204 S800
;TYPE:Perimeter
G1 F1200
G1 X102.616 Y31.239 E.02049
G1 X103.409 Y31.141 E.02505
G1 X104.136 Y31.198 E.02286
G1 X104.824 Y31.387 E.02237
G1 X105.544 Y31.754 E.02534
G1 X106.108 Y32.202 E.02258
G1 X106.524 Y32.686 E.02001
G1 X106.926 Y33.363 E.02469
G1 X107.158 Y34.038 E.02238
G1 X107.262 Y34.837 E.02526
G1 X107.21 Y35.558 E.02267
G1 X107.025 Y36.247 E.02237
G1 X106.664 Y36.968 E.02528
G1 X106.219 Y37.536 E.02262
G1 X105.603 Y38.057 E.0253
G1 X104.97 Y38.404 E.02263
G1 X104.291 Y38.622 E.02236
G1 X103.583 Y38.709 E.02237
G1 X102.871 Y38.661 E.02237
G1 X102.285 Y38.509 E.01898
G1 X101.76 Y38.284 E.01791
G1 X101.44 Y38.113 E.01138
G1 X100.892 Y37.688 E.02174
G1 X100.415 Y37.147 E.02261
G1 X100.052 Y36.533 E.02236
G1 X99.792 Y35.778 E.02504
G1 X99.696 Y35.056 E.02284
G1 X99.759 Y34.231 E.02594
G1 X99.945 Y33.571 E.0215
G1 X100.269 Y32.919 E.02283
G1 X100.703 Y32.351 E.02241
G1 X101.236 Y31.876 E.02239
G1 X101.933 Y31.471 E.02528
G1 X101.94 Y31.468 E.00024
M204 S1000
G1 X101.94 Y31.468 F10800
G1 X102.118 Y31.799
M204 S800
;TYPE:External perimeter
G1 F1200
G1 X102.732 Y31.599 E.02025
G1 X103.45 Y31.516 E.02266
G1 X104.101 Y31.573 E.02049
G1 X104.719 Y31.749 E.02015
G1 X105.368 Y32.087 E.02294
G1 X105.869 Y32.494 E.02024
G1 X106.234 Y32.927 E.01776
G1 X106.597 Y33.546 E.0225
G1 X106.8 Y34.156 E.02016
G1 X106.887 Y34.881 E.02289
G1 X106.835 Y35.525 E.02026
G1 X106.663 Y36.144 E.02014
G1 X106.329 Y36.795 E.02294
G1 X105.926 Y37.298 E.02021
G1 X105.363 Y37.766 E.02295
G1 X104.794 Y38.07 E.02023
G1 X104.181 Y38.261 E.02013
G1 X103.542 Y38.334 E.02017
G1 X102.902 Y38.285 E.02013
G1 X102.386 Y38.146 E.01676
G1 X101.671 Y37.816 E.02469
G1 X101.124 Y37.39 E.02174
G1 X100.701 Y36.902 E.02025
G1 X100.38 Y36.346 E.02013
G1 X100.15 Y35.66 E.02269
G1 X100.071 Y35.012 E.02047
G1 X100.121 Y34.333 E.02135
G1 X100.308 Y33.674 E.02148
G1 X100.604 Y33.092 E.02047
G1 X101 Y32.585 E.02017
G1 X101.483 Y32.161 E.02015
G1 X102.066 Y31.829 E.02104
M204 S1000
;WIPE_START
G1 F8640
G1 X102.118 Y31.799 E-.01386
G1 X102.732 Y31.599 E-.14911
G1 X103.45 Y31.516 E-.16689
G1 X104.101 Y31.573 E-.15089
G1 X104.719 Y31.749 E-.14837
G1 X105.368 Y32.087 E-.16896
G1 X105.374 Y32.092 E-.00192
;WIPE_END
G1 Z.6 F720
G1 X105.324 Y42.052 F10800
G1 Z.2 F720
G1 E.8 F2100
M204 S800
;TYPE:Perimeter
G1 F1200
G1 X105.38 Y42.035 E.00183
G1 X105.787 Y42.008 E.01279
G1 X106.332 Y42.1 E.01733
G1 X106.788 Y42.326 E.01596
G1 X107.067 Y42.557 E.01136
G1 X107.341 Y42.915 E.01414
G1 X107.539 Y43.37 E.01556
G1 X107.586 Y43.577 E.00666
G1 X107.603 Y44.092 E.01616
G1 X107.57 Y44.282 E.00605
G1 X107.324 Y44.897 E.02077
G1 X107.071 Y45.214 E.01272
G1 X106.715 Y45.49 E.01412
G1 X106.1 Y45.736 E.02077
G1 X105.704 Y45.773 E.01247
G1 X105.3 Y45.717 E.01279
G1 X104.806 Y45.528 E.01658
G1 X104.421 Y45.245 E.01498
G1 X104.11 Y44.839 E.01604
G1 X103.894 Y44.315 E.01777
G1 X103.863 Y43.677 E.02003
G1 X103.976 Y43.197 E.01546
G1 X104.3 Y42.669 E.01942
G1 X104.515 Y42.467 E.00925
G1 X104.99 Y42.154 E.01784
G1 X105.267 Y42.07 E.00908
M204 S1000
G1 X105.267 Y42.07 F10800
G1 X105.563 Y42.396
M204 S800
;TYPE:External perimeter
G1 F1200
G1 X105.726 Y42.38 E.00514
G1 X106.235 Y42.464 E.01618
G1 X106.556 Y42.623 E.01123
G1 X106.781 Y42.803 E.00903
G1 X106.995 Y43.066 E.01063
G1 X107.209 Y43.59 E.01775
G1 X107.226 Y44.092 E.01575
G1 X107.048 Y44.622 E.01753
G1 X106.824 Y44.929 E.01192
G1 X106.562 Y45.145 E.01065
G1 X106.055 Y45.362 E.01729
G1 X105.735 Y45.397 E.01009
G1 X105.434 Y45.365 E.00949
G1 X104.96 Y45.184 E.01591
G1 X104.682 Y44.974 E.01092
G1 X104.458 Y44.693 E.01127
G1 X104.257 Y44.213 E.01632
G1 X104.24 Y43.669 E.01707
G1 X104.348 Y43.291 E.01233
G1 X104.627 Y42.859 E.01612
G1 X105.07 Y42.534 E.01723
G1 X105.426 Y42.409 E.01183
G1 X105.503 Y42.402 E.00242
M204 S1000
;WIPE_START
G1 F8640
G1 X105.563 Y42.396 E-.01392
G1 X105.726 Y42.38 E-.03782
G1 X106.235 Y42.464 E-.11912
G1 X106.556 Y42.623 E-.08271
G1 X106.781 Y42.803 E-.06653
G1 X106.995 Y43.066 E-.07829
G1 X107.209 Y43.59 E-.13069
G1 X107.226 Y44.092 E-.11598
G1 X107.048 Y44.622 E-.1291
G1 X106.982 Y44.712 E-.02584
;WIPE_END
G1 Z.6 F720
G1 X104.152 Y59.91 F10800
G1 Z.2 F720
M73 P2 R34
G1 E.8 F2100
M73 Q2 S35
M204 S800
;TYPE:Perimeter
G1 F1200
G1 X104.397 Y59.567 E.01322
G1 X104.864 Y59.227 E.01811
G1 X105.356 Y59.041 E.01649
G1 X105.943 Y59.018 E.01842
G1 X106.383 Y59.114 E.01412
G1 X106.842 Y59.36 E.01633
G1 X107.203 Y59.7 E.01555
G1 X107.327 Y59.872 E.00665
G1 X107.586 Y60.482 E.02078
G1 X107.625 Y60.93 E.0141
G1 X107.546 Y61.431 E.0159
G1 X107.374 Y61.836 E.0138
G1 X106.943 Y62.336 E.0207
G1 X106.772 Y62.462 E.00666
G1 X106.219 Y62.714 E.01905
G1 X105.76 Y62.772 E.01451
G1 X105.364 Y62.734 E.01247
G1 X104.977 Y62.604 E.0128
G1 X104.534 Y62.33 E.01633
G1 X104.173 Y61.929 E.01692
G1 X103.991 Y61.564 E.01279
G1 X103.874 Y61.077 E.0157
G1 X103.889 Y60.548 E.01659
G1 X104.086 Y60.003 E.01817
G1 X104.117 Y59.959 E.00169
M204 S1000
G1 X104.117 Y59.959 F10800
G1 X104.388 Y60.276
M204 S800
;TYPE:External perimeter
G1 F1200
G1 X104.451 Y60.109 E.0056
G1 X104.679 Y59.822 E.01149
G1 X105.097 Y59.524 E.0161
G1 X105.457 Y59.408 E.01186
G1 X106.008 Y59.401 E.01728
G1 X106.318 Y59.491 E.01012
G1 X106.583 Y59.635 E.00946
G1 X106.986 Y60.032 E.01774
G1 X107.212 Y60.535 E.01729
G1 X107.252 Y60.872 E.01064
G1 X107.159 Y61.415 E.01727
G1 X107.003 Y61.717 E.01066
G1 X106.61 Y62.122 E.01769
G1 X106.126 Y62.349 E.01676
G1 X105.684 Y62.389 E.01392
G1 X105.21 Y62.3 E.01512
G1 X104.753 Y62.022 E.01677
G1 X104.501 Y61.742 E.01181
G1 X104.357 Y61.476 E.00948
G1 X104.241 Y60.992 E.01561
G1 X104.265 Y60.6 E.01231
G1 X104.367 Y60.332 E.00899
M204 S1000
;WIPE_START
G1 F8640
G1 X104.388 Y60.276 E-.01381
G1 X104.451 Y60.109 E-.04121
G1 X104.679 Y59.822 E-.08464
G1 X105.097 Y59.524 E-.11853
G1 X105.457 Y59.408 E-.08733
G1 X106.008 Y59.401 E-.12724
G1 X106.318 Y59.491 E-.07454
G1 X106.583 Y59.635 E-.06964
G1 X106.986 Y60.032 E-.13062
G1 X107.079 Y60.239 E-.05244
;WIPE_END
G1 Z.6 F720
G1 X106.622 Y71.021 F10800
G1 Z.2 F720
G1 E.8 F2100
M204 S800
;TYPE:Perimeter
G1 F1200
G1 X106.219 Y71.536 E.0205
G1 X105.603 Y72.057 E.0253
G1 X104.971 Y72.404 E.02261
G1 X104.291 Y72.622 E.02239
G1 X103.583 Y72.709 E.02237
G1 X102.871 Y72.661 E.02237
G1 X102.093 Y72.446 E.02531
G1 X101.45 Y72.12 E.0226
G1 X100.886 Y71.683 E.02237
G1 X100.415 Y71.147 E.02237
G1 X100.052 Y70.533 E.02236
G1 X99.792 Y69.778 E.02504
G1 X99.696 Y69.056 E.02284
G1 X99.739 Y68.343 E.0224
G1 X99.945 Y67.571 E.02505
G1 X100.269 Y66.919 E.02283
G1 X100.703 Y66.351 E.02241
G1 X101.236 Y65.876 E.02239
G1 X101.933 Y65.47 E.02529
G1 X102.617 Y65.239 E.02264
G1 X103.295 Y65.154 E.02142
G1 X103.616 Y65.149 E.01007
G1 X104.136 Y65.198 E.01638
G1 X104.628 Y65.33 E.01597
G1 X105.014 Y65.473 E.01291
G1 X105.464 Y65.703 E.01585
G1 X106.184 Y66.277 E.02887
G1 X106.572 Y66.744 E.01904
G1 X106.926 Y67.363 E.02236
G1 X107.158 Y68.038 E.02238
G1 X107.262 Y68.837 E.02526
G1 X107.21 Y69.558 E.02267
G1 X107.025 Y70.247 E.02237
G1 X106.664 Y70.968 E.02528
G1 X106.659 Y70.974 E.00024
M204 S1000
G1 X106.659 Y70.974 F10800
G1 X106.329 Y70.795
M204 S800
;TYPE:External perimeter
G1 F1200
G1 X105.926 Y71.298 E.02021
G1 X105.363 Y71.766 E.02295
G1 X104.795 Y72.07 E.0202
G1 X104.181 Y72.261 E.02016
G1 X103.542 Y72.334 E.02017
G1 X102.902 Y72.285 E.02013
G1 X102.198 Y72.084 E.02296
G1 X101.626 Y71.787 E.02021
G1 X101.122 Y71.388 E.02016
G1 X100.701 Y70.902 E.02016
G1 X100.38 Y70.346 E.02013
G1 X100.15 Y69.66 E.02269
G1 X100.071 Y69.012 E.02047
G1 X100.115 Y68.371 E.02015
G1 X100.308 Y67.674 E.02268
G1 X100.604 Y67.092 E.02047
G1 X101 Y66.585 E.02017
G1 X101.483 Y66.161 E.02015
G1 X102.118 Y65.799 E.02292
G1 X102.732 Y65.599 E.02025
G1 X103.336 Y65.529 E.01906
G1 X104.075 Y65.571 E.02321
G1 X104.522 Y65.692 E.01452
G1 X104.843 Y65.809 E.01071
G1 X105.293 Y66.038 E.01583
G1 X105.894 Y66.519 E.02414
M73 Q2 S34
G1 X106.282 Y66.985 E.01901
G1 X106.597 Y67.546 E.02017
G1 X106.8 Y68.156 E.02016
G1 X106.887 Y68.881 E.02289
G1 X106.835 Y69.525 E.02026
G1 X106.663 Y70.144 E.02014
G1 X106.357 Y70.741 E.02103
M204 S1000
;WIPE_START
G1 F8640
G1 X106.329 Y70.795 E-.01405
G1 X105.926 Y71.298 E-.14882
G1 X105.363 Y71.766 E-.16905
G1 X104.795 Y72.07 E-.14876
G1 X104.181 Y72.261 E-.14848
G1 X103.542 Y72.334 E-.14851
G1 X103.446 Y72.327 E-.02233
;WIPE_END
G1 Z.6 F720
G1 X60.23 Y40.598 F10800
G1 Z.2 F720
G1 E.8 F2100
M204 S800
;TYPE:Perimeter
G1 F1200
G1 X60.285 Y40.59 E.00174
G1 X93.748 Y40.59 E1.04921
G1 X94.012 Y40.656 E.00853
G1 X94.219 Y40.843 E.00875
G1 X94.307 Y41.071 E.00766
G1 X94.313 Y41.6 E.01659
G1 X94.313 Y63.119 E.67471
G1 X94.251 Y63.378 E.00835
G1 X94.089 Y63.57 E.00788
G1 X93.843 Y63.676 E.0084
G1 X93.748 Y63.685 E.00299
G1 X60.285 Y63.685 E1.04921
G1 X60.126 Y63.662 E.00504
G1 X59.945 Y63.571 E.00635
G1 X59.786 Y63.385 E.00767
G1 X59.719 Y63.119 E.0086
G1 X59.719 Y41.156 E.68863
G1 X59.786 Y40.89 E.0086
G1 X59.945 Y40.704 E.00767
G1 X60.126 Y40.613 E.00635
G1 X60.17 Y40.607 E.00139
M204 S1000
G1 X60.17 Y40.607 F10800
G1 X60.285 Y40.967
M204 S800
;TYPE:External perimeter
G1 F1200
G1 X93.748 Y40.967 E1.04921
G1 X93.888 Y41.03 E.00481
G1 X93.936 Y41.156 E.00423
G1 X93.936 Y63.119 E.68863
G1 X93.876 Y63.257 E.00472
G1 X93.748 Y63.307 E.00431
G1 X60.285 Y63.307 E1.04921
G1 X60.172 Y63.27 E.00373
G1 X60.096 Y63.119 E.0053
G1 X60.096 Y41.156 E.68863
G1 X60.172 Y41.005 E.0053
G1 X60.228 Y40.986 E.00185
M204 S1000
;WIPE_START
G1 F8640
G1 X60.285 Y40.967 E-.01387
G1 X63.69 Y40.967 E-.78613
;WIPE_END
G1 Z.6 F720
G1 X108.256 Y30.382 F10800
G1 Z.2 F720
G1 E.8 F2100
M204 S800
;TYPE:Solid infill
;WIDTH:0.421577
G1 F1200
G1 X108.852 Y30.978 E.02654
G1 X108.852 Y31.513 E.01684
G1 X107.891 Y30.551 E.04281
G1 X107.355 Y30.551 E.01688
G1 X108.852 Y32.049 E.06668
G1 X108.852 Y32.584 E.01684
G1 X106.82 Y30.551 E.0905
G1 X106.284 Y30.551 E.01688
G1 X108.852 Y33.12 E.11437
G1 X108.852 Y33.655 E.01684
G1 X105.749 Y30.551 E.13819
G1 X105.213 Y30.551 E.01688
G1 X108.852 Y34.191 E.16206
G1 X108.852 Y34.726 E.01684
G1 X107.082 Y32.956 E.07881
G1 X106.837 Y32.531 E.01545
G1 X106.332 Y31.947 E.02431
G1 X105.714 Y31.46 E.02477
G1 X105.443 Y31.317 E.00965
G1 X104.508 Y30.382 E.04163
M204 S1000
G1 X104.508 Y30.382 F10800
G1 X104.794 Y31.203
M204 S800
G1 F1200
G1 X104.142 Y30.551 E.02903
G1 X103.607 Y30.551 E.01684
G1 X103.895 Y30.84 E.01285
G1 X103.328 Y30.809 E.01788
G1 X103.071 Y30.551 E.01147
G1 X102.535 Y30.551 E.01688
G1 X102.847 Y30.863 E.01389
G1 X102.628 Y30.887 E.00694
G1 X102.405 Y30.956 E.00735
G1 X102 Y30.551 E.01803
G1 X101.464 Y30.551 E.01688
G1 X101.996 Y31.083 E.02369
G1 X101.774 Y31.171 E.00752
G1 X101.63 Y31.252 E.0052
G1 X100.929 Y30.551 E.03121
G1 X100.393 Y30.551 E.01688
G1 X101.287 Y31.445 E.03981
G1 X100.968 Y31.661 E.01213
G1 X99.858 Y30.551 E.04943
G1 X99.322 Y30.551 E.01688
G1 X100.686 Y31.915 E.06074
G1 X100.411 Y32.175 E.01192
G1 X98.787 Y30.551 E.07231
G1 X98.251 Y30.551 E.01688
G1 X100.18 Y32.48 E.08589
G1 X99.954 Y32.79 E.01208
G1 X97.716 Y30.551 E.09967
G1 X97.18 Y30.551 E.01688
G1 X99.778 Y33.149 E.11568
G1 X99.609 Y33.515 E.01269
G1 X96.645 Y30.551 E.13198
G1 X96.109 Y30.551 E.01688
G1 X99.497 Y33.939 E.15086
G1 X99.397 Y34.374 E.01405
G1 X95.574 Y30.551 E.17023
G1 X95.038 Y30.551 E.01688
G1 X99.365 Y34.878 E.19267
G1 X99.354 Y35.051 E.00546
M73 P3 R34
G1 X99.403 Y35.451 E.01269
G1 X94.503 Y30.551 E.21818
M73 Q3 S34
G1 X93.967 Y30.551 E.01688
G1 X99.825 Y36.409 E.26084
M204 S1000
;WIPE_START
G1 F8640
G1 X97.375 Y33.959 E-.8
;WIPE_END
G1 Z.6 F720
G1 X109.022 Y35.431 F10800
G1 Z.2 F720
G1 E.8 F2100
M204 S800
G1 F1200
G1 X107.444 Y33.853 E.07026
G1 X107.518 Y34.098 E.00806
G1 X107.563 Y34.508 E.01299
G1 X108.852 Y35.797 E.0574
G1 X108.852 Y36.333 E.01688
G1 X107.591 Y35.071 E.05617
G1 X107.548 Y35.564 E.01558
G1 X108.852 Y36.868 E.05806
G1 X108.852 Y37.404 E.01688
G1 X107.447 Y35.998 E.06258
G1 X107.324 Y36.411 E.01357
G1 X108.852 Y37.939 E.06804
G1 X108.852 Y38.475 E.01688
G1 X107.149 Y36.771 E.07585
G1 X106.966 Y37.124 E.01252
G1 X108.852 Y39.01 E.08398
G1 X108.852 Y39.546 E.01688
G1 X106.733 Y37.427 E.09435
G1 X106.499 Y37.728 E.012
G1 X108.852 Y40.081 E.10477
G1 X108.852 Y40.617 E.01688
G1 X106.222 Y37.987 E.11711
G1 X105.928 Y38.228 E.01197
G1 X108.852 Y41.152 E.1302
G1 X108.852 Y41.688 E.01688
G1 X105.608 Y38.443 E.14447
G1 X105.259 Y38.63 E.01247
G1 X108.852 Y42.223 E.15999
G1 X108.852 Y42.759 E.01688
G1 X104.885 Y38.792 E.17664
G1 X104.477 Y38.918 E.01344
G1 X108.852 Y43.294 E.19483
G1 X108.852 Y43.83 E.01688
G1 X104.021 Y38.998 E.21513
G1 X103.533 Y39.046 E.01544
G1 X106.225 Y41.738 E.11987
G1 X106.426 Y41.773 E.00642
G1 X106.85 Y41.965 E.01465
G1 X107.201 Y42.216 E.01359
G1 X107.516 Y42.559 E.01466
G1 X107.647 Y42.769 E.00779
G1 X107.856 Y43.247 E.01643
G1 X107.892 Y43.405 E.0051
G1 X108.852 Y44.365 E.04275
G1 X108.852 Y44.901 E.01688
G1 X107.939 Y43.988 E.04065
G1 X107.943 Y44.102 E.00359
G1 X107.869 Y44.453 E.01129
G1 X108.852 Y45.436 E.04377
