; generated by PrusaSlicer 2.7.4+win64 on 2024-04-16 at 10:08:54 UTC


;
;
; 

; external perimeters extrusion width = 0.45mm
; perimeters extrusion width = 0.45mm
; infill extrusion width = 0.45mm
; solid infill extrusion width = 0.45mm
; top infill extrusion width = 0.40mm
; support material extrusion width = 0.35mm
; first layer extrusion width = 0.42mm

M73 P0 R202
M73 Q0 S204
M201 X1000 Y1000 Z200 E5000 ; sets maximum accelerations, mm/sec^2
M203 X200 Y200 Z12 E120 ; sets maximum feedrates, mm / sec
M204 S1250 T1250 ; sets acceleration (S) and retract acceleration (R), mm/sec^2
M205 X8.00 Y8.00 Z0.40 E4.50 ; sets the jerk limits, mm/sec
M205 S0 T0 ; sets the minimum extruding and travel feed rate, mm/sec

; printing object PZEM reader coque 3.stl id:0 copy 0
; stop printing object PZEM reader coque 3.stl id:0 copy 0

;TYPE:Custom
M862.3 P "MK3S" ; printer model check
M862.1 P0.4 ; nozzle diameter check
M115 U3.13.3 ; tell printer latest fw version
G90 ; use absolute coordinates
M83 ; extruder relative mode
M104 S215 ; set extruder temp
M140 S60 ; set bed temp
M190 S60 ; wait for bed temp
M109 S215 ; wait for extruder temp
G28 W ; home all without mesh bed level
G80 X38.6382 Y30.5659 W57.317 H86.1595 ; mesh bed levelling

G1 Z0.2 F720
G1 Y-3 F1000 ; go outside print area
G92 E0
G1 X60 E9 F1000 ; intro line
G1 X100 E12.5 F1000 ; intro line

G92 E0
M221 S95

; Don't change E values below. Excessive value can damage the printer.
M907 E430 ; set extruder motor current
G21 ; set units to millimeters
G90 ; use absolute coordinates
M83 ; use relative distances for extrusion

M900 K0.05 ; Filament gcode LA 1.5
M900 K30 ; Filament gcode LA 1.0




M107
;LAYER_CHANGE
;Z:0.2
;HEIGHT:0.2
G1 E-.8 F2100
G1 Z.6 F720
; printing object PZEM reader coque 3.stl id:0 copy 0
G1 X77.013 Y33.245 F10800
G1 Z.2 F720
G1 E.8 F2100
M204 S800
;TYPE:Support material
;WIDTH:0.42
G1 F1200
G1 X74.256 Y33.245 E.08644
G1 X73.975 Y33.527 E.01248
G1 X73.975 Y52.791 E.60401
G1 X64.935 Y52.791 E.28344
G1 X64.935 Y33.527 E.60401
G1 X64.654 Y33.245 E.01248
G1 X61.898 Y33.245 E.08641
G1 X61.898 Y30.755 E.07807
G1 X77.013 Y30.755 E.47392
G1 X77.013 Y33.189 E.07632
M204 S1000
G1 X77.013 Y33.189 F10800
G1 X76.578 Y33.076
M204 S800
G1 F1200
G1 X76.578 Y31.094 E.06214
G1 X76.159 Y31.094 E.01314
G1 X76.159 Y32.906 E.05681
G1 X75.74 Y32.906 E.01314
G1 X75.74 Y31.094 E.05681
G1 X75.321 Y31.094 E.01314
G1 X75.321 Y32.906 E.05681
G1 X74.902 Y32.906 E.01314
G1 X74.902 Y31.094 E.05681
G1 X74.483 Y31.094 E.01314
G1 X74.483 Y32.906 E.05681
G1 X74.064 Y32.958 E.01324
G1 X74.064 Y31.094 E.05844
G1 X73.645 Y31.094 E.01314
G1 X73.636 Y52.452 E.66967
G1 X73.226 Y52.452 E.01286
G1 X73.226 Y31.094 E.66967
G1 X72.807 Y31.094 E.01314
G1 X72.807 Y52.452 E.66967
G1 X72.388 Y52.452 E.01314
G1 X72.388 Y31.094 E.66967
G1 X71.969 Y31.094 E.01314
G1 X71.969 Y52.452 E.66967
G1 X71.55 Y52.452 E.01314
G1 X71.55 Y31.094 E.66967
G1 X71.131 Y31.094 E.01314
G1 X71.131 Y52.452 E.66967
G1 X70.712 Y52.452 E.01314
G1 X70.712 Y31.094 E.66967
G1 X70.293 Y31.094 E.01314
G1 X70.293 Y52.452 E.66967
G1 X69.874 Y52.452 E.01314
G1 X69.874 Y31.094 E.66967
G1 X69.455 Y31.094 E.01314
G1 X69.455 Y52.452 E.66967
G1 X69.036 Y52.452 E.01314
G1 X69.036 Y31.094 E.66967
G1 X68.617 Y31.094 E.01314
G1 X68.617 Y52.452 E.66967
G1 X68.198 Y52.452 E.01314
G1 X68.198 Y31.094 E.66967
G1 X67.779 Y31.094 E.01314
G1 X67.779 Y52.452 E.66967
G1 X67.36 Y52.452 E.01314
G1 X67.36 Y31.094 E.66967
G1 X66.941 Y31.094 E.01314
G1 X66.941 Y52.452 E.66967
G1 X66.522 Y52.452 E.01314
G1 X66.522 Y31.094 E.66967
G1 X66.103 Y31.094 E.01314
G1 X66.103 Y52.452 E.66967
G1 X65.684 Y52.452 E.01314
G1 X65.684 Y31.094 E.66967
G1 X65.265 Y31.094 E.01314
G1 X65.265 Y33.377 E.07158
G1 X64.846 Y32.958 E.01858
G1 X64.846 Y31.094 E.05844
G1 X64.427 Y31.094 E.01314
G1 X64.427 Y32.906 E.05681
G1 X64.009 Y32.906 E.01311
G1 X64.009 Y31.094 E.05681
G1 X63.59 Y31.094 E.01314
G1 X63.59 Y32.906 E.05681
G1 X63.171 Y32.906 E.01314
G1 X63.171 Y31.094 E.05681
G1 X62.752 Y31.094 E.01314
G1 X62.752 Y32.906 E.05681
G1 X62.333 Y32.906 E.01314
G1 X62.333 Y30.924 E.06214
M204 S1000
;WIPE_START
G1 F8640
G1 X62.333 Y32.906 E-.45765
G1 X62.752 Y32.906 E-.09675
G1 X62.752 Y31.842 E-.2456
;WIPE_END
G1 Z.6 F720
G1 X42.475 Y57.924 F10800
G1 Z.2 F720
M73 Q0 S203
G1 E.8 F2100
M204 S800
G1 F1200
G1 X42.756 Y58.205 E.01246
G1 X64.654 Y58.205 E.6866
G1 X64.935 Y57.924 E.01246
G1 X64.935 Y53.825 E.12852
G1 X73.975 Y53.825 E.28344
G1 X73.975 Y57.924 E.12852
G1 X74.256 Y58.205 E.01246
G1 X86.654 Y58.205 E.38873
G1 X86.935 Y57.924 E.01246
M73 P0 R201
G1 X86.935 Y56.74 E.03712
G1 X89.455 Y55.286 E.09122
G1 X91.975 Y56.74 E.09122
G1 X91.975 Y57.924 E.03712
G1 X92.256 Y58.205 E.01246
G1 X93.162 Y58.205 E.02841
G1 X93.162 Y92.011 E1.05996
G1 X38.827 Y92.011 E1.70364
G1 X38.827 Y53.825 E1.1973
G1 X42.475 Y53.825 E.11438
G1 X42.475 Y57.868 E.12677
M204 S1000
G1 X42.475 Y57.868 F10800
G1 X92.499 Y91.842
M204 S800
G1 F1200
G1 X92.499 Y58.545 E1.044
G1 X92.08 Y58.509 E.01319
G1 X92.08 Y91.672 E1.0398
G1 X91.661 Y91.672 E.01314
G1 X91.661 Y58.09 E1.05294
G1 X91.636 Y56.936 E.03619
G1 X91.242 Y56.709 E.01426
G1 X91.242 Y91.672 E1.09624
G1 X90.823 Y91.672 E.01314
G1 X90.823 Y56.467 E1.10383
G1 X90.404 Y56.225 E.01517
G1 X90.404 Y91.672 E1.11142
G1 X89.985 Y91.672 E.01314
G1 X89.985 Y55.983 E1.119
G1 X89.566 Y55.741 E.01517
G1 X89.566 Y91.672 E1.12659
G1 X89.147 Y91.672 E.01314
G1 X89.147 Y55.855 E1.12302
G1 X88.728 Y56.097 E.01517
G1 X88.728 Y91.672 E1.11543
G1 X88.309 Y91.672 E.01314
G1 X88.309 Y56.339 E1.10784
G1 X87.89 Y56.581 E.01517
G1 X87.89 Y91.672 E1.10025
G1 X87.471 Y91.672 E.01314
G1 X87.471 Y56.823 E1.09267
G1 X87.275 Y56.936 E.00709
G1 X87.275 Y58.065 E.0354
G1 X87.052 Y58.287 E.00987
G1 X87.052 Y91.672 E1.04676
G1 X86.633 Y91.672 E.01314
G1 X86.633 Y58.545 E1.03867
G1 X86.214 Y58.545 E.01314
G1 X86.214 Y91.672 E1.03867
G1 X85.795 Y91.672 E.01314
G1 X85.795 Y58.545 E1.03867
G1 X85.376 Y58.545 E.01314
G1 X85.376 Y91.672 E1.03867
G1 X84.957 Y91.672 E.01314
G1 X84.957 Y58.545 E1.03867
G1 X84.538 Y58.545 E.01314
G1 X84.538 Y91.672 E1.03867
G1 X84.119 Y91.672 E.01314
G1 X84.119 Y58.545 E1.03867
G1 X83.7 Y58.545 E.01314
G1 X83.7 Y91.672 E1.03867
G1 X83.281 Y91.672 E.01314
G1 X83.281 Y58.545 E1.03867
G1 X82.862 Y58.545 E.01314
G1 X82.862 Y91.672 E1.03867
G1 X82.443 Y91.672 E.01314
G1 X82.443 Y58.545 E1.03867
G1 X82.025 Y58.545 E.01311
G1 X82.025 Y91.672 E1.03867
G1 X81.606 Y91.672 E.01314
G1 X81.606 Y58.545 E1.03867
G1 X81.187 Y58.545 E.01314
G1 X81.187 Y91.672 E1.03867
G1 X80.768 Y91.672 E.01314
G1 X80.768 Y58.545 E1.03867
G1 X80.349 Y58.545 E.01314
M73 Q0 S202
G1 X80.349 Y91.672 E1.03867
G1 X79.93 Y91.672 E.01314
M73 P0 R200
G1 X79.93 Y58.545 E1.03867
G1 X79.511 Y58.545 E.01314
G1 X79.511 Y91.672 E1.03867
G1 X79.092 Y91.672 E.01314
G1 X79.092 Y58.545 E1.03867
G1 X78.673 Y58.545 E.01314
G1 X78.673 Y91.672 E1.03867
G1 X78.254 Y91.672 E.01314
G1 X78.254 Y58.545 E1.03867
G1 X77.835 Y58.545 E.01314
G1 X77.835 Y91.672 E1.03867
G1 X77.416 Y91.672 E.01314
G1 X77.416 Y58.545 E1.03867
G1 X76.997 Y58.545 E.01314
G1 X76.997 Y91.672 E1.03867
G1 X76.578 Y91.672 E.01314
G1 X76.578 Y58.545 E1.03867
G1 X76.159 Y58.545 E.01314
G1 X76.159 Y91.672 E1.03867
G1 X75.74 Y91.672 E.01314
G1 X75.74 Y58.545 E1.03867
G1 X75.321 Y58.545 E.01314
G1 X75.321 Y91.672 E1.03867
G1 X74.902 Y91.672 E.01314
G1 X74.902 Y58.545 E1.03867
G1 X74.483 Y58.545 E.01314
G1 X74.483 Y91.672 E1.03867
G1 X74.064 Y91.672 E.01314
M73 P1 R200
G1 X74.064 Y58.493 E1.0403
G1 X73.645 Y58.074 E.01858
M73 Q1 S202
G1 X73.645 Y91.672 E1.05344
G1 X73.226 Y91.672 E.01314
G1 X73.226 Y54.165 E1.17601
G1 X72.807 Y54.165 E.01314
G1 X72.807 Y91.672 E1.17601
G1 X72.388 Y91.672 E.01314
G1 X72.388 Y54.165 E1.17601
G1 X71.969 Y54.165 E.01314
G1 X71.969 Y91.672 E1.17601
G1 X71.55 Y91.672 E.01314
G1 X71.55 Y54.165 E1.17601
G1 X71.131 Y54.165 E.01314
G1 X71.131 Y91.672 E1.17601
G1 X70.712 Y91.672 E.01314
G1 X70.712 Y54.165 E1.17601
G1 X70.293 Y54.165 E.01314
G1 X70.293 Y91.672 E1.17601
G1 X69.874 Y91.672 E.01314
G1 X69.874 Y54.165 E1.17601
G1 X69.455 Y54.165 E.01314
G1 X69.455 Y91.672 E1.17601
G1 X69.036 Y91.672 E.01314
G1 X69.036 Y54.165 E1.17601
G1 X68.617 Y54.165 E.01314
G1 X68.617 Y91.672 E1.17601
G1 X68.198 Y91.672 E.01314
G1 X68.198 Y54.165 E1.17601
G1 X67.779 Y54.165 E.01314
G1 X67.779 Y91.672 E1.17601
G1 X67.36 Y91.672 E.01314
G1 X67.36 Y54.165 E1.17601
G1 X66.941 Y54.165 E.01314
G1 X66.941 Y91.672 E1.17601
G1 X66.522 Y91.672 E.01314
M73 Q1 S201
G1 X66.522 Y54.165 E1.17601
G1 X66.103 Y54.165 E.01314
G1 X66.103 Y91.672 E1.17601
G1 X65.684 Y91.672 E.01314
M73 P1 R199
G1 X65.684 Y54.165 E1.17601
G1 X65.275 Y54.165 E.01282
G1 X65.265 Y91.672 E1.17601
G1 X64.846 Y91.672 E.01314
G1 X64.846 Y58.493 E1.0403
G1 X64.427 Y58.545 E.01324
G1 X64.427 Y91.672 E1.03867
G1 X64.009 Y91.672 E.01311
G1 X64.009 Y58.545 E1.03867
G1 X63.59 Y58.545 E.01314
G1 X63.59 Y91.672 E1.03867
G1 X63.171 Y91.672 E.01314
G1 X63.171 Y58.545 E1.03867
G1 X62.752 Y58.545 E.01314
G1 X62.752 Y91.672 E1.03867
G1 X62.333 Y91.672 E.01314
G1 X62.333 Y58.545 E1.03867
G1 X61.914 Y58.545 E.01314
G1 X61.914 Y91.672 E1.03867
G1 X61.495 Y91.672 E.01314
G1 X61.495 Y58.545 E1.03867
G1 X61.076 Y58.545 E.01314
G1 X61.076 Y91.672 E1.03867
G1 X60.657 Y91.672 E.01314
G1 X60.657 Y58.545 E1.03867
G1 X60.238 Y58.545 E.01314
G1 X60.238 Y91.672 E1.03867
G1 X59.819 Y91.672 E.01314
G1 X59.819 Y58.545 E1.03867
G1 X59.4 Y58.545 E.01314
G1 X59.4 Y91.672 E1.03867
G1 X58.981 Y91.672 E.01314
G1 X58.981 Y58.545 E1.03867
G1 X58.562 Y58.545 E.01314
G1 X58.562 Y91.672 E1.03867
G1 X58.143 Y91.672 E.01314
G1 X58.143 Y58.545 E1.03867
G1 X57.724 Y58.545 E.01314
G1 X57.724 Y91.672 E1.03867
G1 X57.305 Y91.672 E.01314
G1 X57.305 Y58.545 E1.03867
G1 X56.886 Y58.545 E.01314
G1 X56.886 Y91.672 E1.03867
G1 X56.467 Y91.672 E.01314
G1 X56.467 Y58.545 E1.03867
G1 X56.048 Y58.545 E.01314
G1 X56.048 Y91.672 E1.03867
G1 X55.629 Y91.672 E.01314
G1 X55.629 Y58.545 E1.03867
G1 X55.21 Y58.545 E.01314
G1 X55.21 Y91.672 E1.03867
G1 X54.791 Y91.672 E.01314
G1 X54.791 Y58.545 E1.03867
G1 X54.372 Y58.545 E.01314
G1 X54.372 Y91.672 E1.03867
G1 X53.953 Y91.672 E.01314
G1 X53.953 Y58.545 E1.03867
G1 X53.534 Y58.545 E.01314
G1 X53.534 Y91.672 E1.03867
G1 X53.115 Y91.672 E.01314
G1 X53.115 Y58.545 E1.03867
G1 X52.696 Y58.545 E.01314
G1 X52.696 Y91.672 E1.03867
G1 X52.277 Y91.672 E.01314
G1 X52.277 Y58.545 E1.03867
G1 X51.858 Y58.545 E.01314
M73 Q1 S200
G1 X51.858 Y91.672 E1.03867
G1 X51.439 Y91.672 E.01314
G1 X51.439 Y58.545 E1.03867
G1 X51.02 Y58.545 E.01314
M73 P1 R198
G1 X51.02 Y91.672 E1.03867
G1 X50.601 Y91.672 E.01314
G1 X50.601 Y58.545 E1.03867
G1 X50.182 Y58.545 E.01314
G1 X50.182 Y91.672 E1.03867
G1 X49.763 Y91.672 E.01314
G1 X49.763 Y58.545 E1.03867
G1 X49.344 Y58.545 E.01314
G1 X49.344 Y91.672 E1.03867
G1 X48.925 Y91.672 E.01314
G1 X48.925 Y58.545 E1.03867
G1 X48.506 Y58.545 E.01314
G1 X48.506 Y91.672 E1.03867
G1 X48.087 Y91.672 E.01314
G1 X48.087 Y58.545 E1.03867
G1 X47.668 Y58.545 E.01314
G1 X47.668 Y91.672 E1.03867
G1 X47.249 Y91.672 E.01314
G1 X47.249 Y58.545 E1.03867
G1 X46.83 Y58.545 E.01314
G1 X46.83 Y91.672 E1.03867
G1 X46.411 Y91.672 E.01314
G1 X46.411 Y58.545 E1.03867
G1 X45.992 Y58.545 E.01314
G1 X45.992 Y91.672 E1.03867
G1 X45.574 Y91.672 E.01311
G1 X45.574 Y58.545 E1.03867
G1 X45.155 Y58.545 E.01314
M73 P2 R198
G1 X45.155 Y91.672 E1.03867
G1 X44.736 Y91.672 E.01314
G1 X44.736 Y58.545 E1.03867
G1 X44.317 Y58.545 E.01314
M73 Q2 S200
G1 X44.317 Y91.672 E1.03867
G1 X43.898 Y91.672 E.01314
G1 X43.898 Y58.545 E1.03867
G1 X43.479 Y58.545 E.01314
G1 X43.479 Y91.672 E1.03867
G1 X43.06 Y91.672 E.01314
G1 X43.06 Y58.545 E1.03867
G1 X42.641 Y58.545 E.01314
G1 X42.641 Y91.672 E1.03867
G1 X42.222 Y91.672 E.01314
G1 X42.222 Y58.151 E1.05103
G1 X42.136 Y58.065 E.00381
G1 X42.136 Y54.165 E.12228
G1 X41.803 Y54.165 E.01044
G1 X41.803 Y91.672 E1.17601
G1 X41.384 Y91.672 E.01314
G1 X41.384 Y54.165 E1.17601
G1 X40.965 Y54.165 E.01314
G1 X40.965 Y91.672 E1.17601
G1 X40.546 Y91.672 E.01314
G1 X40.546 Y54.165 E1.17601
G1 X40.127 Y54.165 E.01314
G1 X40.127 Y91.672 E1.17601
G1 X39.708 Y91.672 E.01314
G1 X39.708 Y54.165 E1.17601
G1 X39.289 Y54.165 E.01314
G1 X39.289 Y91.842 E1.18134
M204 S1000
;WIPE_START
G1 F8640
G1 X39.289 Y88.377 E-.8
;WIPE_END
G1 Z.6 F720
G1 X43.742 Y115.938 F10800
G1 Z.2 F720
G1 E.8 F2100
M204 S800
;TYPE:Perimeter
;WIDTH:0.419999
G1 F1200
G1 X43.742 Y93.335 E.7087
G1 X95.168 Y93.335 E1.61242
G1 X95.168 Y104.637 E.35437
G1 X95.168 Y115.938 E.35433
M73 Q2 S199
G1 X43.802 Y115.938 E1.61054
M204 S1000
G1 X43.802 Y115.938 F10800
M73 P2 R197
G1 X43.365 Y116.315
M204 S800
;TYPE:External perimeter
G1 F1200
G1 X43.365 Y92.958 E.73234
G1 X95.545 Y92.958 E1.63606
G1 X95.545 Y104.637 E.36619
G1 X95.545 Y116.315 E.36615
G1 X43.425 Y116.315 E1.63418
M204 S1000
;WIPE_START
G1 F8640
G1 X43.365 Y116.315 E-.01385
G1 X43.365 Y112.91 E-.78615
;WIPE_END
G1 Z.6 F720
G1 X94.232 Y93.505 F10800
G1 Z.2 F720
G1 E.8 F2100
M204 S800
;TYPE:Solid infill
;WIDTH:0.421896
G1 F1200
G1 X94.829 Y94.101 E.02658
G1 X94.829 Y94.637 E.01689
G1 X93.866 Y93.674 E.04292
G1 X93.33 Y93.674 E.01689
G1 X94.829 Y95.173 E.0668
G1 X94.829 Y95.709 E.01689
G1 X92.794 Y93.674 E.09069
G1 X92.258 Y93.674 E.01689
G1 X94.829 Y96.245 E.11458
G1 X94.829 Y96.781 E.01689
G1 X91.722 Y93.674 E.13846
G1 X91.186 Y93.674 E.01689
G1 X94.829 Y97.317 E.16235
G1 X94.829 Y97.853 E.01689
G1 X90.65 Y93.674 E.18624
G1 X90.114 Y93.674 E.01689
G1 X94.829 Y98.389 E.21012
G1 X94.829 Y98.925 E.01689
G1 X89.578 Y93.674 E.23401
G1 X89.042 Y93.674 E.01689
G1 X94.829 Y99.461 E.2579
G1 X94.829 Y99.997 E.01689
G1 X88.506 Y93.674 E.28178
G1 X87.97 Y93.674 E.01689
G1 X94.829 Y100.533 E.30567
G1 X94.829 Y101.069 E.01689
G1 X87.434 Y93.674 E.32956
G1 X86.899 Y93.674 E.01686
G1 X94.829 Y101.605 E.35342
G1 X94.829 Y102.141 E.01689
G1 X86.363 Y93.674 E.37731
G1 X85.827 Y93.674 E.01689
G1 X94.829 Y102.677 E.40119
G1 X94.829 Y103.213 E.01689
G1 X85.291 Y93.674 E.42508
G1 X84.755 Y93.674 E.01689
G1 X94.829 Y103.749 E.44897
G1 X94.829 Y104.284 E.01686
G1 X84.219 Y93.674 E.47283
G1 X83.683 Y93.674 E.01689
G1 X94.829 Y104.82 E.49672
G1 X94.829 Y105.356 E.01689
G1 X83.147 Y93.674 E.5206
G1 X82.611 Y93.674 E.01689
G1 X94.829 Y105.892 E.54449
G1 X94.829 Y106.428 E.01689
G1 X82.075 Y93.674 E.56838
G1 X81.539 Y93.674 E.01689
G1 X94.829 Y106.964 E.59226
G1 X94.829 Y107.5 E.01689
G1 X81.003 Y93.674 E.61615
G1 X80.467 Y93.674 E.01689
G1 X94.829 Y108.036 E.64004
G1 X94.829 Y108.572 E.01689
G1 X79.931 Y93.674 E.66392
G1 X79.395 Y93.674 E.01689
G1 X94.829 Y109.108 E.68781
G1 X94.829 Y109.644 E.01689
G1 X78.859 Y93.674 E.7117
G1 X78.323 Y93.674 E.01689
G1 X94.829 Y110.18 E.73558
G1 X94.829 Y110.716 E.01689
G1 X77.787 Y93.674 E.75947
G1 X77.251 Y93.674 E.01689
G1 X94.829 Y111.252 E.78336
G1 X94.829 Y111.788 E.01689
G1 X76.715 Y93.674 E.80724
G1 X76.179 Y93.674 E.01689
G1 X94.829 Y112.324 E.83113
G1 X94.829 Y112.86 E.01689
G1 X75.643 Y93.674 E.85502
G1 X75.108 Y93.674 E.01686
G1 X94.829 Y113.396 E.87888
G1 X94.829 Y113.932 E.01689
G1 X74.572 Y93.674 E.90277
G1 X74.036 Y93.674 E.01689
G1 X94.829 Y114.468 E.92666
G1 X94.829 Y115.004 E.01689
G1 X73.5 Y93.674 E.95054
G1 X72.964 Y93.674 E.01689
G1 X94.829 Y115.54 E.97443
G1 X94.829 Y115.599 E.00186
G1 X94.352 Y115.599 E.01503
G1 X72.428 Y93.674 E.97706
G1 X71.892 Y93.674 E.01689
G1 X93.816 Y115.599 E.97706
G1 X93.28 Y115.599 E.01689
G1 X71.356 Y93.674 E.97706
G1 X70.82 Y93.674 E.01689
G1 X92.744 Y115.599 E.97706
G1 X92.208 Y115.599 E.01689
G1 X70.284 Y93.674 E.97706
G1 X69.748 Y93.674 E.01689
G1 X91.672 Y115.599 E.97706
G1 X91.137 Y115.599 E.01686
G1 X69.212 Y93.674 E.97708
G1 X68.676 Y93.674 E.01689
G1 X90.601 Y115.599 E.97708
G1 X90.065 Y115.599 E.01689
G1 X68.14 Y93.674 E.97708
G1 X67.604 Y93.674 E.01689
M73 Q2 S198
G1 X89.529 Y115.599 E.97708
G1 X88.993 Y115.599 E.01689
G1 X67.068 Y93.674 E.97708
G1 X66.532 Y93.674 E.01689
M73 P2 R196
G1 X88.457 Y115.599 E.97708
G1 X87.921 Y115.599 E.01689
G1 X65.996 Y93.674 E.97708
G1 X65.46 Y93.674 E.01689
G1 X87.385 Y115.599 E.97708
